X: 293
T: Benüsen`e Gideyim
C: Cemil Değer
O: Turkey
F: http://compmusic.upf.edu/node/140
N: gerdaniye--turku--sofyan--benusene_gideyim--
N: makam= gerdaniye
N: form= turku
N: usul= sofyan = 4/4
M: 4/4
L: 1/16
K: C _2/4B ^3/4f  
Q: 1/4=99
%%MIDI tuningsystem comma53
d4 e2f2 g2f2 g4  | d4 e2f2 g4 =f2e2  | \
w:  ARANAĞME  |   | 
d4 c2B2 A4 GABc  | d4 c2d2 d4 d4  | 
w:   |   | 
d2c2 c2B2 c2d2 B2A2  | A2G2 c2{d}B2 c2B2 B4  | \
w:   |   | 
B2A2 A4 A4 edef  | 
w:   | 
g4 g2g2 g2f2 g4  | g2g6 g2fg f2e2  | \
w:  *  Be nü se *  ne   |  gi de yim    | 
e2f2 g2a2 g2f2 e2d2  | 
w:  Yâ *  ri *  mi  *  ben   | 
d2{e}d2 {e}c2B2 A8  | g4 g2g2 g2f2 g4  | \
w:  gö *  *  *  re *  yim    |  *  Be nü se *  ne   | 
g2g6 g2fg f2e2  | e2f2 g2a2 g2f2 e2d2  | 
w:  gi de yim    |  Yâ *  ri *  mi  *  ben   | 
d2{e}d2 {e}c2B2 A8  | d4 c2d2 d2d4z2  | \
w:  gö *  *  *  re *  yim    |  SAZ O  yâr  de ğil   | 
d2c2 c2B2 {d}c3/2d/Bc B2AB  | 
w:  misk_ *  an *  *  ber    | 
A2G2 d2{e}c2 c2B2 B4  | {c}B2A2 A4 A4 (3.A2.B2.c2  | \
w:  *  *  Ko *  ku su *  nu   |  *  a *  la yım   SAZ  | 
d4 c2d2 d2d4z2  | d2c2 c2B2 {d}c3/2d/Bc B2AB  | 
w:  SAZ O  yâr  de ğil   |  misk_ *  an *  *  ber    | 
A2G2 d2{e}c2 c2B2 B4  | {c}B2A2 A4 A8  | \
w:  *  *  Ko *  ku su *  nu   |  *  a *  la yım    | 
d4 e2f2 g2f2 g4  | d4 e2f2 g4 =f2e2  | 
w:  ARANAĞME  |   | 
d4 c2B2 A4 GABc  | d4 c2d2 d4 d4  | d2c2 c2B2 c2d2 B2A2  | 
w:   |   |   | 
A2G2 c2{d}B2 c2B2 B4  | B2A2 A4 A4 edef  | \
w:   |   | 
g4 g2g2 g2f2 g4  | 
w:  *  Be nü se *  ne   | 
g2g6 g2fg f2e2  | e2f2 g2a2 g2f2 e2d2  | \
w:  gi de yim    |  Yâ *  ri *  mi  *  ben   | 
d2{e}d2 {e}c2B2 A8  | g4 g2g2 g2f2 g4  | 
w:  gö *  *  *  re *  yim    |  *  Be nü se *  ne   | 
g2g6 g2fg f2e2  | e2f2 g2a2 g2f2 e2d2  | \
w:  gi de yim    |  Yâ *  ri *  mi  *  ben   | 
d2{e}d2 {e}c2B2 A8  | d4 c2d2 d2d4z2  | 
w:  gö *  *  *  re *  yim    |  SAZ O  yâr  de ğil   | 
d2c2 c2B2 {d}c3/2d/Bc B2AB  | A2G2 d2{e}c2 c2B2 B4  | \
w:  misk_ *  an *  *  ber    |  *  *  Ko *  ku su *  nu   | 
{c}B2A2 A4 A4 (3.A2.B2.c2  | 
w:  *  a *  la yım   SAZ  | 
d4 c2d2 d2d4z2  | d2c2 c2B2 {d}c3/2d/Bc B2AB  | \
w:  SAZ O  yâr  de ğil   |  misk_ *  an *  *  ber    | 
A2G2 d2{e}c2 c2B2 B4  | 
w:  *  *  Ko *  ku su *  nu   | 
{c}B2A2 A4 A8  | |


